X:1
T:Cheryl
C:1947 - Charlie Parker
Z:Copyright © www.realbook.site
L:1/8
M:2/2
I:linebreak $
K:C
V:1 treble nm=" " snm=" "
V:1
 z _B,2 (_E/F/ _A)G_D=B, |:"C" C G2 =A- A=EFG |"F" ED z G dcAG- |"C" GA_BA"G7#5" G2 z _d | %4
"Gm7" cA_Bc"C7" AG z (c/B/) |$"F7" .A2 z2 _B_G_EC | _AF^F=G =A,_B,=F^D |"Cmaj7" .E2 z F GFE=D | %8
"Em7b5" (3G2 A2 _B2"A7" (3A2 E2 A,2 |$"Dm7b5" _A,DCA, D3 C |"G7b5" G2 z2 z2 !>!C2- | %11
"C" C2 D2- D F2 A | GE z C FECC :| %13

